app/img/_src/main/services/services-7.svg

<svg width="100" height="100" viewBox="0 0 100 100" fill="none" xmlns="http://www.w3.org/2000/svg">
<path d="M5.13049 67.2242H94.8678V69.961H5.13049V67.2242Z" fill="#D4E1F4"/>
<path d="M14.2256 42.1207C14.2256 42.4315 14.3491 42.7296 14.5688 42.9493C14.7886 43.1691 15.0867 43.2926 15.3975 43.2926H21.0908C21.4016 43.2926 21.6997 43.1691 21.9195 42.9493C22.1392 42.7296 22.2627 42.4315 22.2627 42.1207V41.3949H32.9201V39.0512H22.2627V38.3252C22.2627 38.0144 22.1392 37.7163 21.9195 37.4966C21.6997 37.2768 21.4016 37.1533 21.0908 37.1533H15.3975C15.0867 37.1533 14.7886 37.2768 14.5688 37.4966C14.3491 37.7163 14.2256 38.0144 14.2256 38.3252V39.0512H3.69434C3.38354 39.0512 3.08546 39.1746 2.8657 39.3944C2.64593 39.6142 2.52246 39.9122 2.52246 40.223C2.52246 40.5338 2.64593 40.8319 2.8657 41.0517C3.08546 41.2715 3.38354 41.3949 3.69434 41.3949H14.2256V42.1207ZM16.5693 39.4971H19.9189V40.9488H16.5693V39.4971Z" fill="url(#paint0_linear)"/>
<path d="M35.4502 41.3949H45.9814V42.1207C45.9814 42.4315 46.1049 42.7296 46.3247 42.9493C46.5444 43.1691 46.8425 43.2926 47.1533 43.2926H52.8467C53.1575 43.2926 53.4555 43.1691 53.6753 42.9493C53.8951 42.7296 54.0186 42.4315 54.0186 42.1207V41.3949H64.676V39.0512H54.0186V38.3252C54.0186 38.0144 53.8951 37.7163 53.6753 37.4966C53.4555 37.2768 53.1575 37.1533 52.8467 37.1533H47.1533C46.8425 37.1533 46.5444 37.2768 46.3247 37.4966C46.1049 37.7163 45.9814 38.0144 45.9814 38.3252V39.0512H35.4502C35.1394 39.0512 34.8413 39.1746 34.6216 39.3944C34.4018 39.6142 34.2783 39.9122 34.2783 40.223C34.2783 40.5338 34.4018 40.8319 34.6216 41.0517C34.8413 41.2715 35.1394 41.3949 35.4502 41.3949ZM48.3252 39.4971H51.6748V40.9488H48.3252V39.4971Z" fill="url(#paint1_linear)"/>
<path d="M85.7744 38.3252C85.7744 38.0144 85.651 37.7163 85.4312 37.4966C85.2114 37.2768 84.9133 37.1533 84.6025 37.1533H78.9092C78.5984 37.1533 78.3003 37.2768 78.0805 37.4966C77.8608 37.7163 77.7373 38.0144 77.7373 38.3252V39.0512H67.207C66.8962 39.0512 66.5982 39.1746 66.3784 39.3944C66.1586 39.6142 66.0352 39.9122 66.0352 40.223C66.0352 40.5338 66.1586 40.8319 66.3784 41.0517C66.5982 41.2715 66.8962 41.3949 67.207 41.3949H77.7383V42.1207C77.7383 42.4315 77.8618 42.7296 78.0815 42.9493C78.3013 43.1691 78.5994 43.2926 78.9102 43.2926H84.6035C84.9143 43.2926 85.2124 43.1691 85.4322 42.9493C85.6519 42.7296 85.7754 42.4315 85.7754 42.1207V41.3949H96.4316V39.0512H85.7744V38.3252ZM83.4307 40.9488H80.0811V39.4971H83.4307V40.9488Z" fill="url(#paint2_linear)"/>
<path d="M90.8893 45.832C90.7436 45.7823 90.5896 45.7618 90.436 45.7716C90.2824 45.7814 90.1322 45.8214 89.9941 45.8893C89.856 45.9571 89.7326 46.0515 89.6309 46.1671C89.5293 46.2827 89.4514 46.4171 89.4017 46.5628C89.352 46.7084 89.3314 46.8624 89.3413 47.016C89.3511 47.1696 89.3911 47.3198 89.4589 47.4579C89.5268 47.596 89.6212 47.7195 89.7368 47.8211C89.8523 47.9228 89.9868 48.0007 90.1324 48.0504C91.188 48.4108 92.1044 49.0924 92.7532 49.9998C93.4019 50.9072 93.7505 51.9949 93.75 53.1103V68.7109H6.25001V53.1103C6.2488 52.0591 6.55799 51.0309 7.13879 50.1547C7.7196 49.2785 8.54617 48.5933 9.51485 48.1849C9.8011 48.0638 10.0275 47.834 10.1443 47.546C10.2611 47.258 10.2587 46.9353 10.1376 46.6491C10.0165 46.3628 9.78668 46.1364 9.49866 46.0196C9.21063 45.9028 8.88801 45.9053 8.60176 46.0263C7.20855 46.6136 6.01975 47.5991 5.18443 48.8594C4.34911 50.1196 3.90446 51.5984 3.90626 53.1103V69.8828C3.90626 70.1936 4.02972 70.4916 4.24949 70.7114C4.46926 70.9312 4.76733 71.0546 5.07813 71.0546H94.9219C95.2327 71.0546 95.5307 70.9312 95.7505 70.7114C95.9703 70.4916 96.0938 70.1936 96.0938 69.8828V53.1103C96.0942 51.5058 95.5926 49.9413 94.6593 48.6361C93.726 47.3309 92.4077 46.3504 90.8893 45.832Z" fill="url(#paint3_linear)"/>
<path d="M87.2695 29.3792C85.9933 29.7197 84.7816 30.2673 83.6828 31.0003C83.0677 31.4 82.4226 31.7516 81.7533 32.052C81.6035 31.9671 81.438 31.8715 81.2623 31.77C79.7041 30.8702 77.349 29.5102 75.2775 29.2354C70.7097 28.6284 67.2123 30.6766 65.922 34.7116L65.917 34.729C65.8267 34.4029 65.7195 34.0817 65.5957 33.7669C64.9972 32.2557 62.5017 27.4731 55.5131 29.3786C54.2368 29.7191 53.0252 30.2667 51.9263 30.9997C51.3112 31.3995 50.6662 31.7511 49.9968 32.0514C49.847 31.9665 49.6816 31.871 49.506 31.7694C47.9476 30.8696 45.5927 29.5096 43.5211 29.2348C38.9535 28.6278 35.4558 30.676 34.1656 34.711C34.1636 34.7167 34.1621 34.7225 34.1603 34.7284C34.07 34.4022 33.9628 34.081 33.839 33.7661C33.2406 32.2551 30.7457 27.4727 23.7568 29.378C22.4804 29.7184 21.2686 30.266 20.1697 30.9991C19.5545 31.3987 18.9094 31.7502 18.2402 32.0506C18.0904 31.9657 17.925 31.8702 17.7494 31.7686C16.191 30.8688 13.8361 29.5088 11.7644 29.234C7.19548 28.627 3.69938 30.6753 2.40896 34.7102C1.18122 38.551 2.51501 42.9106 5.382 44.4284C6.93767 45.252 7.89509 45.8206 8.18571 46.2901C8.40563 46.6456 8.36618 47.2405 8.25583 48.5526C8.2363 48.7919 8.21403 49.0481 8.19314 49.3237C8.03884 51.3415 7.80837 58.2073 11.3218 61.8374C11.5816 62.0876 11.897 62.2725 12.2422 62.377C12.6191 62.513 13.0251 62.5479 13.4198 62.4784C13.8144 62.4089 14.184 62.2374 14.4919 61.9808C14.7997 61.7242 15.0351 61.3916 15.1746 61.0159C15.3141 60.6403 15.3529 60.2346 15.2871 59.8393C15.2332 59.2534 14.6019 51.6108 17.8054 47.7118C17.8646 47.6439 17.9377 47.5896 18.0197 47.5525C18.1017 47.5154 18.1907 47.4964 18.2807 47.4968C18.3708 47.4971 18.4596 47.5169 18.5414 47.5547C18.6231 47.5924 18.6957 47.6474 18.7543 47.7157C21.9009 51.6415 21.275 59.2563 21.2217 59.8397C21.1664 60.1697 21.1842 60.5078 21.2738 60.8301C21.3634 61.1525 21.5226 61.4513 21.7402 61.7054C21.9578 61.9595 22.2285 62.1628 22.5333 62.3009C22.838 62.439 23.1693 62.5086 23.5039 62.5048C23.7631 62.5046 24.0205 62.4615 24.2656 62.377C24.611 62.2726 24.9266 62.0876 25.1865 61.8374C28.6996 58.2073 28.4691 51.3415 28.3148 49.3237C28.2939 49.0503 28.2726 48.7942 28.2525 48.5561C28.1424 47.2434 28.1027 46.6481 28.3226 46.2926C28.6131 45.8239 29.5707 45.254 31.1271 44.4278C32.5427 43.6764 33.5734 42.2012 34.1119 40.4298C34.6494 42.1942 35.7008 43.668 37.1371 44.4284C38.6927 45.252 39.65 45.8206 39.9408 46.2901C40.1607 46.6456 40.1213 47.2405 40.0109 48.5526C39.9914 48.7919 39.9691 49.0481 39.9482 49.3237C39.7939 51.3413 39.5631 58.2069 43.0759 61.8366C43.3358 62.0873 43.6515 62.2725 43.997 62.377C44.374 62.513 44.7799 62.548 45.1746 62.4785C45.5692 62.409 45.9389 62.2375 46.2467 61.981C46.5546 61.7245 46.79 61.3919 46.9295 61.0163C47.069 60.6406 47.1079 60.235 47.0422 59.8397C46.9884 59.2561 46.3564 51.6116 49.5601 47.712C49.6193 47.6441 49.6924 47.5897 49.7744 47.5526C49.8565 47.5154 49.9455 47.4964 50.0356 47.4967C50.1256 47.4971 50.2146 47.5168 50.2963 47.5546C50.3781 47.5924 50.4507 47.6473 50.5093 47.7157C53.6558 51.6415 53.03 59.2563 52.9767 59.8397C52.9215 60.1697 52.9392 60.5077 53.0288 60.8301C53.1184 61.1524 53.2776 61.4512 53.4951 61.7053C53.7127 61.9594 53.9834 62.1627 54.2881 62.3009C54.5928 62.4391 54.924 62.5087 55.2586 62.505C55.5178 62.5049 55.7752 62.4617 56.0203 62.3772C56.3658 62.2727 56.6817 62.0877 56.9418 61.8374C60.4548 58.2073 60.2244 51.3415 60.0701 49.3237C60.0492 49.0503 60.0277 48.7942 60.0078 48.5561C59.8974 47.2434 59.858 46.6481 60.0779 46.2926C60.3683 45.8239 61.3259 45.254 62.8824 44.4278C64.298 43.6764 65.3285 42.2012 65.8672 40.4298C66.4047 42.1942 67.456 43.668 68.8923 44.4284C70.448 45.252 71.4052 45.8206 71.6959 46.2901C71.916 46.6454 71.8763 47.2405 71.766 48.5526C71.7465 48.7917 71.7242 49.0481 71.7033 49.3237C71.549 51.3415 71.3185 58.2071 74.8312 61.8366C75.091 62.0873 75.4068 62.2725 75.7523 62.377C76.1293 62.5129 76.5352 62.5479 76.9298 62.4784C77.3244 62.4089 77.694 62.2374 78.0019 61.9809C78.3097 61.7244 78.5451 61.3918 78.6846 61.0162C78.8242 60.6406 78.8631 60.235 78.7974 59.8397C78.7437 59.2561 78.1117 51.6116 81.3154 47.712C81.3746 47.6441 81.4476 47.5897 81.5297 47.5526C81.6117 47.5154 81.7008 47.4964 81.7909 47.4967C81.8809 47.4971 81.9698 47.5168 82.0516 47.5546C82.1333 47.5924 82.206 47.6473 82.2646 47.7157C85.4111 51.6415 84.7853 59.2563 84.732 59.8397C84.6767 60.1697 84.6945 60.5077 84.7841 60.8301C84.8737 61.1524 85.0328 61.4512 85.2504 61.7053C85.468 61.9594 85.7387 62.1627 86.0433 62.3009C86.348 62.4391 86.6793 62.5087 87.0138 62.505C87.2731 62.5049 87.5305 62.4617 87.7756 62.3772C88.1211 62.2728 88.4368 62.0878 88.6968 61.8374C92.2101 58.2073 91.9797 51.3415 91.8254 49.3237C91.8045 49.0503 91.783 48.7942 91.7631 48.5561C91.6527 47.2434 91.6133 46.6481 91.8332 46.2926C92.1234 45.8239 93.0812 45.254 94.6375 44.4278C97.689 42.8081 98.9556 37.8262 97.3478 33.7655C96.7535 32.2563 94.2578 27.4743 87.2695 29.3792ZM30.031 42.3596C25.9099 44.5471 25.6322 45.3309 25.9199 48.7544C25.9394 48.987 25.9603 49.2362 25.9808 49.5044C26.2572 53.1176 25.766 57.7856 23.5742 60.1366L23.5484 60.1462C23.5496 60.1376 23.5506 60.1288 23.5515 60.12C23.5906 59.7528 24.447 51.0704 20.5853 46.2528C20.3086 45.9121 19.9598 45.637 19.5641 45.4472C19.1683 45.2574 18.7354 45.1577 18.2965 45.1552C17.8576 45.1527 17.4236 45.2476 17.0258 45.4328C16.6279 45.6181 16.276 45.8893 15.9955 46.2268C12.0549 51.0233 12.9218 59.7524 12.9607 60.1216C12.9616 60.1307 12.9629 60.1397 12.9648 60.1487L12.9388 60.1385C10.7457 57.7884 10.255 53.1182 10.5312 49.5051C10.5517 49.2358 10.573 48.9854 10.5925 48.7516C10.8806 45.3264 10.6023 44.5423 6.48005 42.3598C4.60075 41.3649 3.75915 38.1899 4.64235 35.4262C5.96267 31.2958 9.84685 31.346 11.4566 31.559C13.0664 31.7721 15.2652 33.0419 16.5777 33.8001C17.0215 34.0563 17.4047 34.2776 17.7011 34.4251C19.1295 35.1354 21.2812 36.0303 23.4674 35.6038C23.6184 35.5743 23.7622 35.5153 23.8904 35.4303C24.0187 35.3452 24.1289 35.2357 24.2149 35.1081C24.3008 34.9804 24.3608 34.8371 24.3913 34.6862C24.4219 34.5354 24.4224 34.38 24.3929 34.229C24.3634 34.0779 24.3045 33.9342 24.2194 33.8059C24.1344 33.6776 24.0249 33.5674 23.8972 33.4814C23.7696 33.3955 23.6262 33.3355 23.4754 33.305C23.3246 33.2744 23.1692 33.2739 23.0181 33.3034C22.3628 33.416 21.6908 33.3849 21.0486 33.2124C21.1713 33.1376 21.2896 33.0643 21.4051 32.9926C22.3127 32.3795 23.3165 31.9225 24.375 31.6407C29.1681 30.3346 30.9974 32.9532 31.6615 34.6303C32.8158 37.5456 32.0236 41.302 30.031 42.3596ZM61.7869 42.3596C57.6658 44.5471 57.3881 45.3309 57.6757 48.7544C57.6953 48.987 57.7162 49.2362 57.7367 49.5044C58.0129 53.1176 57.5218 57.7856 55.33 60.1366L55.3043 60.1462C55.3054 60.1376 55.3064 60.1288 55.3074 60.12C55.3465 59.7528 56.2029 51.0704 52.3412 46.2528C52.0644 45.9121 51.7157 45.637 51.3199 45.4473C50.9241 45.2575 50.4912 45.1578 50.0524 45.1553C49.6135 45.1529 49.1795 45.2477 48.7816 45.433C48.3837 45.6183 48.0319 45.8895 47.7513 46.227C43.8107 51.0233 44.6779 59.7524 44.7168 60.1216C44.7176 60.1307 44.719 60.1397 44.7209 60.1487L44.6949 60.1385C42.5013 57.7882 42.0109 53.118 42.2873 49.5051C42.3078 49.2358 42.3291 48.9854 42.3486 48.7516C42.6367 45.3264 42.3584 44.5423 38.2359 42.3598C36.3566 41.3649 35.5152 38.1899 36.3984 35.4262C37.7185 31.2958 41.6035 31.346 43.2127 31.559C44.8218 31.7721 47.0213 33.0419 48.3338 33.8001C48.7775 34.0563 49.1607 34.2776 49.4572 34.4251C50.8855 35.1354 53.0382 36.0303 55.2234 35.6038C55.3745 35.5743 55.5182 35.5153 55.6465 35.4303C55.7747 35.3452 55.885 35.2357 55.9709 35.1081C56.0569 34.9804 56.1168 34.8371 56.1474 34.6862C56.1779 34.5354 56.1785 34.38 56.149 34.229C56.1195 34.0779 56.0605 33.9342 55.9755 33.8059C55.8904 33.6776 55.7809 33.5674 55.6533 33.4814C55.5256 33.3955 55.3823 33.3355 55.2314 33.305C55.0806 33.2744 54.9252 33.2739 54.7742 33.3034C54.1188 33.416 53.4468 33.3849 52.8047 33.2124C52.9273 33.1376 53.0457 33.0643 53.1611 32.9926C54.0683 32.3794 55.0718 31.9223 56.1299 31.6403C60.9234 30.3342 62.7525 32.9528 63.4166 34.6301C64.5715 37.5458 63.7795 41.302 61.7869 42.3596ZM93.5425 42.3596C89.4214 44.5471 89.1439 45.3309 89.4316 48.7544C89.4511 48.987 89.472 49.2362 89.4925 49.5044C89.7687 53.1176 89.2777 57.7856 87.0859 60.1366L87.0601 60.1462C87.0613 60.1376 87.0623 60.1288 87.0633 60.12C87.1023 59.7528 87.9588 51.0704 84.097 46.2528C83.8203 45.9121 83.4715 45.637 83.0758 45.4473C82.68 45.2575 82.2471 45.1578 81.8082 45.1553C81.3693 45.1529 80.9353 45.2477 80.5375 45.433C80.1396 45.6183 79.7877 45.8895 79.5072 46.227C75.5666 51.0233 76.4338 59.7524 76.4726 60.1216C76.4726 60.1315 76.475 60.1411 76.4763 60.1487L76.4508 60.1385C74.2574 57.7884 73.7666 53.118 74.0429 49.5051C74.0634 49.2358 74.0845 48.9854 74.1043 48.7518C74.3925 45.3264 74.1142 44.5424 69.9918 42.3598C68.1125 41.3649 67.2711 38.1899 68.1543 35.4262C69.4746 31.2958 73.359 31.346 74.9685 31.559C76.5781 31.7721 78.7771 33.0419 80.0894 33.8001C80.5334 34.0563 80.9166 34.2776 81.2129 34.4251C82.6412 35.1354 84.7935 36.0303 86.9793 35.6038C87.1303 35.5743 87.2741 35.5153 87.4023 35.4303C87.5306 35.3452 87.6408 35.2357 87.7268 35.1081C87.8127 34.9804 87.8727 34.8371 87.9033 34.6862C87.9338 34.5354 87.9343 34.38 87.9049 34.229C87.8754 34.0779 87.8164 33.9342 87.7313 33.8059C87.6463 33.6776 87.5368 33.5674 87.4091 33.4814C87.2815 33.3955 87.1381 33.3355 86.9873 33.305C86.8365 33.2744 86.6811 33.2739 86.53 33.3034C85.8747 33.416 85.2027 33.3849 84.5605 33.2124C84.6832 33.1376 84.8013 33.0643 84.917 32.9926C85.8242 32.3794 86.8276 31.9223 87.8857 31.6403C92.6791 30.3342 94.5084 32.9528 95.1724 34.6301C96.3281 37.5458 95.5351 41.302 93.5425 42.3596Z" fill="url(#paint4_linear)"/>
<defs>
<linearGradient id="paint0_linear" x1="17.7213" y1="37.1533" x2="17.7213" y2="43.2926" gradientUnits="userSpaceOnUse">
<stop stop-color="#8888D3"/>
<stop offset="1" stop-color="#5E60A3"/>
</linearGradient>
<linearGradient id="paint1_linear" x1="49.4771" y1="37.1533" x2="49.4771" y2="43.2926" gradientUnits="userSpaceOnUse">
<stop stop-color="#8888D3"/>
<stop offset="1" stop-color="#5E60A3"/>
</linearGradient>
<linearGradient id="paint2_linear" x1="81.2334" y1="37.1533" x2="81.2334" y2="43.2926" gradientUnits="userSpaceOnUse">
<stop stop-color="#8888D3"/>
<stop offset="1" stop-color="#5E60A3"/>
</linearGradient>
<linearGradient id="paint3_linear" x1="50" y1="45.7692" x2="50" y2="71.0546" gradientUnits="userSpaceOnUse">
<stop stop-color="#8888D3"/>
<stop offset="1" stop-color="#5E60A3"/>
</linearGradient>
<linearGradient id="paint4_linear" x1="50.0003" y1="28.9362" x2="50.0003" y2="62.5133" gradientUnits="userSpaceOnUse">
<stop stop-color="#8888D3"/>
<stop offset="1" stop-color="#5E60A3"/>
</linearGradient>
</defs>
</svg>

<svg width="100" height="100" fill="none" xmlns="http://www.w3.org/2000/svg"><path d="M5.13 67.224h89.738v2.737H5.13v-2.737z" fill="#D4E1F4"/><path d="M14.226 42.12a1.172 1.172 0 001.171 1.173h5.694a1.172 1.172 0 001.172-1.172v-.726H32.92V39.05H22.263v-.726a1.172 1.172 0 00-1.172-1.172h-5.694a1.172 1.172 0 00-1.171 1.172v.726H3.694a1.172 1.172 0 100 2.344h10.532v.726zm2.343-2.623h3.35v1.452h-3.35v-1.452z" fill="url(#paint0_linear)"/><path d="M35.45 41.395h10.531v.726a1.172 1.172 0 001.172 1.172h5.694a1.172 1.172 0 001.172-1.172v-.726h10.657V39.05H54.019v-.726a1.172 1.172 0 00-1.172-1.172h-5.694a1.172 1.172 0 00-1.172 1.172v.726h-10.53a1.171 1.171 0 100 2.344zm12.875-1.898h3.35v1.452h-3.35v-1.452z" fill="url(#paint1_linear)"/><path d="M85.774 38.325a1.171 1.171 0 00-1.171-1.172h-5.694a1.172 1.172 0 00-1.172 1.172v.726h-10.53a1.172 1.172 0 100 2.344h10.531v.726a1.172 1.172 0 001.172 1.172h5.694a1.172 1.172 0 001.171-1.172v-.726h10.657V39.05H85.774v-.726zm-2.343 2.624h-3.35v-1.452h3.35v1.452z" fill="url(#paint2_linear)"/><path d="M90.89 45.832a1.173 1.173 0 00-.758 2.218 5.345 5.345 0 013.618 5.06v15.6H6.25v-15.6a5.338 5.338 0 013.265-4.925 1.172 1.172 0 00-.913-2.159 7.678 7.678 0 00-4.696 7.084v16.773a1.172 1.172 0 001.172 1.172h89.844a1.172 1.172 0 001.172-1.172V53.11a7.689 7.689 0 00-5.205-7.278z" fill="url(#paint3_linear)"/><path d="M87.27 29.38A12.07 12.07 0 0083.682 31c-.615.4-1.26.752-1.93 1.052a71.34 71.34 0 01-.49-.282c-1.559-.9-3.914-2.26-5.986-2.535-4.567-.607-8.065 1.442-9.355 5.477l-.005.017a9.707 9.707 0 00-.321-.962c-.599-1.511-3.094-6.294-10.083-4.388a12.07 12.07 0 00-3.587 1.62c-.615.4-1.26.752-1.93 1.052a65.55 65.55 0 01-.49-.282c-1.558-.9-3.913-2.26-5.985-2.534-4.568-.607-8.065 1.441-9.355 5.476l-.006.017a9.71 9.71 0 00-.321-.962c-.598-1.51-3.093-6.293-10.082-4.388-1.277.34-2.488.888-3.587 1.621-.616.4-1.26.751-1.93 1.052a65.55 65.55 0 01-.49-.282c-1.559-.9-3.914-2.26-5.986-2.535-4.569-.607-8.065 1.441-9.355 5.476-1.228 3.841.106 8.2 2.973 9.718 1.556.824 2.513 1.393 2.804 1.862.22.356.18.95.07 2.263-.02.239-.042.495-.063.77-.154 2.019-.385 8.884 3.129 12.514.26.25.575.435.92.54a2.296 2.296 0 003.045-2.538c-.054-.586-.685-8.228 2.518-12.127a.627.627 0 01.95.004c3.146 3.925 2.52 11.54 2.467 12.124a2.287 2.287 0 002.282 2.665c.26 0 .516-.044.762-.128.345-.104.66-.29.92-.54 3.514-3.63 3.283-10.495 3.129-12.513-.021-.274-.042-.53-.063-.768-.11-1.313-.15-1.908.07-2.263.291-.47 1.249-1.039 2.805-1.865 1.416-.752 2.446-2.227 2.985-3.998.537 1.764 1.589 3.238 3.025 3.998 1.556.824 2.513 1.393 2.804 1.862.22.356.18.95.07 2.263-.02.239-.042.495-.063.77-.154 2.018-.385 8.884 3.128 12.514.26.25.575.435.921.54a2.296 2.296 0 003.045-2.537c-.054-.584-.686-8.228 2.518-12.128a.628.628 0 01.95.004c3.146 3.925 2.52 11.54 2.467 12.124a2.288 2.288 0 002.282 2.665c.259 0 .516-.043.761-.128.346-.104.662-.29.922-.54 3.513-3.63 3.282-10.495 3.128-12.513-.02-.274-.042-.53-.062-.768-.11-1.313-.15-1.908.07-2.263.29-.47 1.248-1.039 2.804-1.865 1.416-.752 2.447-2.227 2.985-3.998.538 1.764 1.589 3.238 3.025 3.998 1.556.824 2.513 1.393 2.804 1.862.22.355.18.95.07 2.263-.02.239-.042.495-.063.77-.154 2.019-.385 8.884 3.128 12.514.26.25.576.435.921.54a2.297 2.297 0 003.045-2.537c-.053-.584-.685-8.228 2.518-12.128a.627.627 0 01.95.004c3.146 3.925 2.52 11.54 2.467 12.124a2.287 2.287 0 002.282 2.665c.26 0 .517-.043.762-.128.345-.104.66-.29.92-.54 3.514-3.63 3.284-10.495 3.13-12.513-.021-.274-.043-.53-.063-.768-.11-1.313-.15-1.908.07-2.263.29-.47 1.248-1.039 2.805-1.865 3.051-1.62 4.318-6.602 2.71-10.662-.594-1.51-3.09-6.292-10.079-4.387zM30.03 42.36c-4.121 2.187-4.399 2.97-4.111 6.394.02.233.04.482.06.75.277 3.614-.214 8.282-2.406 10.633l-.026.01a.722.722 0 00.004-.027c.039-.367.895-9.05-2.967-13.867a2.97 2.97 0 00-4.59-.026c-3.94 4.796-3.073 13.525-3.034 13.895 0 .009.002.018.004.027l-.026-.01c-2.193-2.35-2.684-7.02-2.408-10.634.02-.27.042-.52.061-.753.289-3.426.01-4.21-4.112-6.392-1.88-.995-2.72-4.17-1.838-6.934 1.32-4.13 5.205-4.08 6.815-3.867 1.61.213 3.808 1.483 5.12 2.241.444.256.828.478 1.124.625 1.428.71 3.58 1.605 5.766 1.179a1.173 1.173 0 00-.449-2.3 4.594 4.594 0 01-1.97-.092c.123-.074.242-.148.357-.22a9.818 9.818 0 012.97-1.351c4.793-1.306 6.622 1.312 7.287 2.99 1.154 2.915.362 6.671-1.631 7.729zm31.756 0c-4.121 2.187-4.399 2.97-4.111 6.394.02.233.04.482.06.75.277 3.614-.214 8.282-2.406 10.633l-.026.01.003-.027c.04-.367.896-9.05-2.966-13.867a2.97 2.97 0 00-4.59-.026c-3.94 4.796-3.073 13.525-3.034 13.895 0 .009.002.018.004.027l-.026-.01c-2.194-2.35-2.684-7.021-2.408-10.634.02-.27.042-.52.062-.753.288-3.426.01-4.21-4.113-6.392-1.88-.995-2.72-4.17-1.838-6.934 1.32-4.13 5.205-4.08 6.815-3.867 1.609.213 3.808 1.483 5.12 2.241.445.256.828.478 1.124.625 1.428.71 3.581 1.605 5.766 1.179a1.173 1.173 0 00-.449-2.3 4.593 4.593 0 01-1.97-.092c.123-.074.242-.148.357-.22a9.815 9.815 0 012.969-1.352c4.793-1.306 6.622 1.313 7.287 2.99 1.154 2.916.362 6.672-1.63 7.73zm31.756 0c-4.122 2.187-4.4 2.97-4.111 6.394.02.233.04.482.06.75.277 3.614-.214 8.282-2.406 10.633l-.026.01.003-.027c.04-.367.896-9.05-2.966-13.867a2.97 2.97 0 00-4.59-.026c-3.94 4.796-3.073 13.525-3.034 13.895 0 .01.002.02.003.027l-.025-.01c-2.194-2.35-2.684-7.021-2.408-10.634.02-.27.041-.52.061-.753.288-3.426.01-4.21-4.112-6.392-1.88-.995-2.72-4.17-1.838-6.934 1.32-4.13 5.205-4.08 6.815-3.867 1.61.213 3.808 1.483 5.12 2.241.444.256.828.478 1.124.625 1.428.71 3.58 1.605 5.766 1.179a1.173 1.173 0 00-.449-2.3 4.594 4.594 0 01-1.97-.092c.123-.074.241-.148.357-.22a9.815 9.815 0 012.969-1.352c4.793-1.306 6.622 1.313 7.286 2.99 1.156 2.916.363 6.672-1.63 7.73z" fill="url(#paint4_linear)"/><defs><linearGradient id="paint0_linear" x1="17.721" y1="37.153" x2="17.721" y2="43.293" gradientUnits="userSpaceOnUse"><stop stop-color="#8888D3"/><stop offset="1" stop-color="#5E60A3"/></linearGradient><linearGradient id="paint1_linear" x1="49.477" y1="37.153" x2="49.477" y2="43.293" gradientUnits="userSpaceOnUse"><stop stop-color="#8888D3"/><stop offset="1" stop-color="#5E60A3"/></linearGradient><linearGradient id="paint2_linear" x1="81.233" y1="37.153" x2="81.233" y2="43.293" gradientUnits="userSpaceOnUse"><stop stop-color="#8888D3"/><stop offset="1" stop-color="#5E60A3"/></linearGradient><linearGradient id="paint3_linear" x1="50" y1="45.769" x2="50" y2="71.055" gradientUnits="userSpaceOnUse"><stop stop-color="#8888D3"/><stop offset="1" stop-color="#5E60A3"/></linearGradient><linearGradient id="paint4_linear" x1="50" y1="28.936" x2="50" y2="62.513" gradientUnits="userSpaceOnUse"><stop stop-color="#8888D3"/><stop offset="1" stop-color="#5E60A3"/></linearGradient></defs></svg>
